src/ios-star-outline.svg

<?xml version="1.0" encoding="utf-8"?>
<!-- Generated by IcoMoon.io -->
<!DOCTYPE svg PUBLIC "-//W3C//DTD SVG 1.1//EN" "http://www.w3.org/Graphics/SVG/1.1/DTD/svg11.dtd">
<svg version="1.1" xmlns="http://www.w3.org/2000/svg" xmlns:xlink="http://www.w3.org/1999/xlink" width="512" height="512" viewBox="0 0 512 512">
<path fill="#000000" d="M480 207h-171.4l-52.6-159.1-52.6 159.1h-171.4l140.2 97.9-54.6 159.1 138.4-98.6 138.4 98.6-54.7-159.1 140.3-97.9zM362.6 421.2l-106.6-76-106.6 76 42.6-122.5-108-74.7h131l41-123.3 41 123.3h131l-108 74.6 42.6 122.6z"></path>
</svg>

<?xml version="1.0" encoding="utf-8"?>
<!-- Generator: Adobe Illustrator 16.2.1, SVG Export Plug-In . SVG Version: 6.00 Build 0)  -->
<!DOCTYPE svg PUBLIC "-//W3C//DTD SVG 1.1//EN" "http://www.w3.org/Graphics/SVG/1.1/DTD/svg11.dtd">
<svg version="1.1" id="Layer_1" xmlns="http://www.w3.org/2000/svg" xmlns:xlink="http://www.w3.org/1999/xlink" x="0px" y="0px"
	 width="512px" height="512px" viewBox="0 0 512 512" style="enable-background:new 0 0 512 512;" xml:space="preserve">
<path d="M480,207H308.6L256,47.9L203.4,207H32l140.2,97.9L117.6,464L256,365.4L394.4,464l-54.7-159.1L480,207z M362.6,421.2
	l-106.6-76l-106.6,76L192,298.7L84,224h131l41-123.3L297,224h131l-108,74.6L362.6,421.2z"/>
</svg>
